X: 15
T:Little Whare
M:6/8
L:1/8
Q:180
C:Paul Bond
K:D
T:Capo 2
"C"d2B A2B|"Am"dd2f2f|"Dm"e2AA2A|"G"A3-A2A|
"C"d2B A2B|"Am"dd2f2f|"Dm"e2dc2d|"G"e3- e2f|!
"F"g2ab2g|"C"fg a-a2f|"Dm"e2dc2d|"G"e3A2A|
"C"d2B A2B|"Am"dd2f2f|"Dm"e2B "G"c2A|"C"d3-d2A:||
